static/assets/img/logos/brand/buzzfeed.svg

<svg fill="none" height="36" viewBox="0 0 201 36" width="201" xmlns="http://www.w3.org/2000/svg"><path d="m0 .0207965c5.633.0074552 11.2682-.0784412 16.8985.0526723 4.3401.1011302 7.7406 3.0961612 8.4727 7.1870912.8285 4.63094-1.5365 8.58514-5.1851 9.64614-.0927.0269-.1681.1143-.2927.2026 3.4777 1.0115 5.5535 3.3501 6.138 6.8539.9638 5.781-2.1746 10.5312-8.1041 11.2033-1.3151.1488-2.6505.145-3.9767.152-4.65005.0251-9.30041.0243-13.95044057.0334zm7.48871 28.5858035c.09667.0337.19318.0968.28937.0968 2.33412.0038 4.67232.088 7.00142-.0242 2.41-.1162 3.8431-1.621 3.9069-3.8386.0643-2.2281-1.2594-3.8352-3.6196-4.123-1.492-.182-3.016-.0985-4.5257-.1201-1.00031-.0141-2.00115-.0026-3.05239-.0026zm-.05105-14.5858c2.17587 0 4.24184.0037 6.30774-.0033.3976-.0014.8042.002 1.1909-.0771 1.4588-.2976 2.5574-1.0575 2.9395-2.6024.6092-2.46292-.936-4.59071-3.4443-4.71696-1.1662-.05851-2.3373-.01621-3.5061-.01735-1.13353-.00145-2.2674-.00032-3.43621-.00032-.02329.2551-.04961.41068-.04977.56627-.00271 2.23735-.00176 4.47466-.00176 6.85116zm126.87934 21.9792c-.881-.1663-1.771-.2938-2.641-.5058-6.81-1.6585-10.281-7.6142-9.686-14.1949.499-5.5102 3.233-9.5386 8.44-11.40351 7.271-2.60379 15.702.91161 16.946 10.73991.164 1.2985.156 2.6196.234 4.0467h-18.775c.435 2.4213 1.637 4.12 3.733 5.0229 3.405 1.4673 6.595.7359 9.603-1.231.178-.1162.342-.2542.515-.3792.017-.0123.05-.0016.171-.0016.92 1.3761 1.87 2.7973 2.938 4.3943-.969.6138-1.862 1.2791-2.838 1.7773-1.795.9165-3.726 1.4023-5.731 1.572-.229.0193-.451.1068-.676.1627zm6.813-15.9683c.131-3.1731-2.845-5.5964-6.613-5.4453-3.134.1256-5.92 2.8219-5.585 5.4453zm20.146 15.9683c-1.084-.2215-2.185-.3781-3.248-.676-5.076-1.4226-8.577-5.7836-9.038-11.1135-.435-5.0275 1-9.2883 4.972-12.46 6.02-4.80614 17.85-3.7159 20.2 7.6556.168.8148.267 1.6512.318 2.4826.054.8828.012 1.7721.012 2.7932h-18.653c.163 1.4216.706 2.5645 1.608 3.5098 2.063 2.1633 4.637 2.5704 7.419 2.0745 1.773-.3162 3.409-1.0003 4.882-2.2823l3.002 4.4721c-.781.5315-1.489 1.0935-2.267 1.5259-1.934 1.0749-4.027 1.6421-6.218 1.8504-.255.0241-.504.1102-.756.1674-.745.0003-1.489.0003-2.233.0003zm-5.392-15.9728h12.21c.157-3.0758-2.748-5.5188-6.399-5.4463-3.24.064-6.044 2.6671-5.811 5.4463zm-118.0775 15.9728c-.798-.166-1.6012-.3097-2.393-.5016-4.905-1.1876-7.8023-4.9178-7.8067-10.0453-.0038-4.9149-.0007-9.83-.0007-14.7449v-.8808h6.63v.9385c0 4.6451.0134 9.29-.0061 13.9348-.0091 2.1069.6253 3.8911 2.5903 4.808 2.1298.9936 4.3107.9573 6.281-.4684 1.4432-1.0439 1.8511-2.6419 1.8541-4.3588.0088-4.618.0032-9.236.0032-13.8538v-1.01554h6.5579l.0003.91034c0 4.8611.0022 9.722-.0008 14.5831-.0033 5.8657-3.5969 9.8978-9.3559 10.5126-.2843.0304-.5626.1194-.8439.1812-1.17.0006-2.34.0006-3.5097.0006zm62.6025-.7293v-35.2260795h24.116v3.4170495c0 .75621-.05 1.5168.014 2.2675.063.74746-.232.89251-.909.88862-4.759-.02755-9.517-.01458-14.276-.01458h-1.505v7.41759h.898c3.589 0 7.178.0209 10.767-.0172.725-.0076.895.2266.878.9226-.044 1.856-.015 3.7138-.015 5.6629h-12.582v14.6816zm75.763-.0138v-.9267c0-7.8833 0-15.7662.001-23.6495 0-1.03482.001-1.04389 1.052-1.03401 3.639.03404 7.292-.12349 10.912.16126 5.158.40545 9.195 2.76565 11.106 7.93865 1.942 5.2565.462 11.2556-3.484 14.5422-2.326 1.9362-5.062 2.8897-8.008 2.9976-3.742.1376-7.492.0434-11.239.0462-.076.0002-.152-.0326-.34-.0757zm6.323-5.4064c1.271 0 2.461.0003 3.651 0 4.281-.0015 6.977-2.4528 7.457-6.7808.344-3.1075-1.311-6.1983-3.945-7.2957-2.321-.9662-4.746-.4525-7.163-.5891zm-117.6131-14.2692h-11.2333v-5.78032h20.308c0 1.09052-.0539 2.18642.0158 3.27462.0641 1.003-.2362 1.7779-.8595 2.5654-3.3775 4.2701-6.7018 8.5833-10.0434 12.8825-.1793.2306-.3499.4682-.6292.8429h11.6511v5.8913h-20.5043c0-1.6092-.0233-3.2177.022-4.8244.0078-.2759.2806-.5634.4728-.8118 3.4283-4.436 6.8634-8.8663 10.295-13.2997.1428-.1849.2646-.3869.505-.7405zm11.0242.0065c0-1.8241-.0016-3.4961.0024-5.1684.0003-.1844.0303-.3688.0517-.60805h20.2451c0 1.55405.0168 3.08315-.0177 4.61115-.0053.2303-.2289.4729-.3889.6796-3.486 4.4945-6.9776 8.9844-10.4662 13.4768-.1723.2219-.326.4588-.5944.8384h1.0164c3.2952 0 6.5907.0141 9.8863-.0122.6122-.0047.8408.1481.8229.811-.0448 1.6675-.0148 3.3373-.0148 5.0564h-20.523c0-1.6653-.0131-3.303.0166-4.9397.0035-.2052.2155-.4194.3599-.6061 3.3474-4.3305 6.6992-8.6574 10.0498-12.9856.2559-.3308.5063-.666.8764-1.1535z" fill="#adb5bd"/></svg>

<svg width="201" height="36" viewBox="0 0 201 36" fill="none" xmlns="http://www.w3.org/2000/svg">
<path d="M0 0.0207965C5.633 0.0282517 11.2682 -0.0576447 16.8985 0.0734688C21.2386 0.174599 24.6391 3.16963 25.3712 7.26056C26.1997 11.8915 23.8347 15.8457 20.1861 16.9067C20.0934 16.9336 20.018 17.021 19.8934 17.1093C23.3711 18.1208 25.4469 20.4594 26.0314 23.9632C26.9952 29.7442 23.8568 34.4944 17.9273 35.1665C16.6122 35.3153 15.2768 35.3115 13.9506 35.3185C9.30055 35.3436 4.65019 35.3428 0.000159433 35.3519L0 0.0207965ZM7.48871 28.6066C7.58538 28.6403 7.68189 28.7034 7.77808 28.7034C10.1122 28.7072 12.4504 28.7914 14.7795 28.6792C17.1895 28.563 18.6226 27.0582 18.6864 24.8406C18.7507 22.6125 17.427 21.0054 15.0668 20.7176C13.5748 20.5356 12.0508 20.6191 10.5411 20.5975C9.54079 20.5834 8.53995 20.5949 7.48871 20.5949V28.6066V28.6066ZM7.43766 14.0208C9.61353 14.0208 11.6795 14.0245 13.7454 14.0175C14.143 14.0161 14.5496 14.0195 14.9363 13.9404C16.3951 13.6428 17.4937 12.8829 17.8758 11.338C18.485 8.87508 16.9398 6.74729 14.4315 6.62104C13.2653 6.56253 12.0942 6.60483 10.9254 6.60369C9.79187 6.60224 8.658 6.60337 7.48919 6.60337C7.4659 6.85847 7.43958 7.01405 7.43942 7.16964C7.43671 9.40699 7.43766 11.6443 7.43766 14.0208ZM134.317 36C133.436 35.8337 132.546 35.7062 131.676 35.4942C124.866 33.8357 121.395 27.88 121.99 21.2993C122.489 15.7891 125.223 11.7607 130.43 9.89579C137.701 7.292 146.132 10.8074 147.376 20.6357C147.54 21.9342 147.532 23.2553 147.61 24.6824H128.835C129.27 27.1037 130.472 28.8024 132.568 29.7053C135.973 31.1726 139.163 30.4412 142.171 28.4743C142.349 28.3581 142.513 28.2201 142.686 28.0951C142.703 28.0828 142.736 28.0935 142.857 28.0935C143.777 29.4696 144.727 30.8908 145.795 32.4878C144.826 33.1016 143.933 33.7669 142.957 34.2651C141.162 35.1816 139.231 35.6674 137.226 35.8371C136.997 35.8564 136.775 35.9439 136.55 35.9998L134.317 36V36ZM141.13 20.0317C141.261 16.8586 138.285 14.4353 134.517 14.5864C131.383 14.712 128.597 17.4083 128.932 20.0317H141.13ZM161.276 36C160.192 35.7785 159.091 35.6219 158.028 35.324C152.952 33.9014 149.451 29.5404 148.99 24.2105C148.555 19.183 149.99 14.9222 153.962 11.7505C159.982 6.94436 171.812 8.0346 174.162 19.4061C174.33 20.2209 174.429 21.0573 174.48 21.8887C174.534 22.7715 174.492 23.6608 174.492 24.6819H155.839C156.002 26.1035 156.545 27.2464 157.447 28.1917C159.51 30.355 162.084 30.7621 164.866 30.2662C166.639 29.95 168.275 29.2659 169.748 27.9839L172.75 32.456C171.969 32.9875 171.261 33.5495 170.483 33.9819C168.549 35.0568 166.456 35.624 164.265 35.8323C164.01 35.8564 163.761 35.9425 163.509 35.9997C162.764 36 162.02 36 161.276 36V36ZM155.884 20.0272H168.094C168.251 16.9514 165.346 14.5084 161.695 14.5809C158.455 14.6449 155.651 17.248 155.884 20.0272V20.0272ZM37.8065 36C37.0085 35.834 36.2053 35.6903 35.4135 35.4984C30.5085 34.3108 27.6112 30.5806 27.6068 25.4531C27.603 20.5382 27.6061 15.6231 27.6061 10.7082V9.8274H34.2361V10.7659C34.2361 15.411 34.2495 20.0559 34.23 24.7007C34.2209 26.8076 34.8553 28.5918 36.8203 29.5087C38.9501 30.5023 41.131 30.466 43.1013 29.0403C44.5445 27.9964 44.9524 26.3984 44.9554 24.6815C44.9642 20.0635 44.9586 15.4455 44.9586 10.8277V9.81216H51.5165L51.5168 10.7225C51.5168 15.5836 51.519 20.4445 51.516 25.3056C51.5127 31.1713 47.9191 35.2034 42.1601 35.8182C41.8758 35.8486 41.5975 35.9376 41.3162 35.9994C40.1462 36 38.9762 36 37.8065 36V36ZM100.409 35.2707V0.0446205H124.525V3.46167C124.525 4.21788 124.475 4.97847 124.539 5.72917C124.602 6.47663 124.307 6.62168 123.63 6.61779C118.871 6.59024 114.113 6.60321 109.354 6.60321H107.849V14.0208H108.747C112.336 14.0208 115.925 14.0417 119.514 14.0036C120.239 13.996 120.409 14.2302 120.392 14.9262C120.348 16.7822 120.377 18.64 120.377 20.5891H107.795V35.2707H100.409ZM176.172 35.2569V34.3302C176.172 26.4469 176.172 18.564 176.173 10.6807C176.173 9.64588 176.174 9.63681 177.225 9.64669C180.864 9.68073 184.517 9.5232 188.137 9.80795C193.295 10.2134 197.332 12.5736 199.243 17.7466C201.185 23.0031 199.705 29.0022 195.759 32.2888C193.433 34.225 190.697 35.1785 187.751 35.2864C184.009 35.424 180.259 35.3298 176.512 35.3326C176.436 35.3328 176.36 35.3 176.172 35.2569V35.2569ZM182.495 29.8505C183.766 29.8505 184.956 29.8508 186.146 29.8505C190.427 29.849 193.123 27.3977 193.603 23.0697C193.947 19.9622 192.292 16.8714 189.658 15.774C187.337 14.8078 184.912 15.3215 182.495 15.1849C182.495 20.1197 182.495 24.9176 182.495 29.8505ZM64.8819 15.5813H53.6486V9.80098H73.9566C73.9566 10.8915 73.9027 11.9874 73.9724 13.0756C74.0365 14.0786 73.7362 14.8535 73.1129 15.641C69.7354 19.9111 66.4111 24.2243 63.0695 28.5235C62.8902 28.7541 62.7196 28.9917 62.4403 29.3664H74.0914V35.2577H53.5871C53.5871 33.6485 53.5638 32.04 53.6091 30.4333C53.6169 30.1574 53.8897 29.8699 54.0819 29.6215C57.5102 25.1855 60.9453 20.7552 64.3769 16.3218C64.5197 16.1369 64.6415 15.9349 64.8819 15.5813V15.5813ZM75.9061 15.5878C75.9061 13.7637 75.9045 12.0917 75.9085 10.4194C75.9088 10.235 75.9388 10.0506 75.9602 9.81135H96.2053C96.2053 11.3654 96.2221 12.8945 96.1876 14.4225C96.1823 14.6528 95.9587 14.8954 95.7987 15.1021C92.3127 19.5966 88.8211 24.0865 85.3325 28.5789C85.1602 28.8008 85.0065 29.0377 84.7381 29.4173H85.7545C89.0497 29.4173 92.3452 29.4314 95.6408 29.4051C96.253 29.4004 96.4816 29.5532 96.4637 30.2161C96.4189 31.8836 96.4489 33.5534 96.4489 35.2725H75.9259C75.9259 33.6072 75.9128 31.9695 75.9425 30.3328C75.946 30.1276 76.158 29.9134 76.3024 29.7267C79.6498 25.3962 83.0016 21.0693 86.3522 16.7411C86.6081 16.4103 86.8585 16.0751 87.2286 15.5876L75.9061 15.5878V15.5878Z" fill="#ADB5BD"/>
</svg>
